X:1
T:Title
%%score ( 1 2 3 ) { 4 | 5 }
L:1/8
Q:1/4=107
M:4/4
K:F
V:1 treble nm="Grand Piano, Staff"
V:2 treble 
V:3 treble 
V:4 bass nm="Choir Pad, Dies Irae (Dykes)"
V:5 bass 
V:1
 [DF]3 [DE] D2 [DE]2 | [DF]2 [DG]2 [DA]2 D2 | [DB]2 [EB]2 [A,A]2 D2 | G2 z2 z4 | z2 G2 z4 | %5
w: By~John~Bacchus~Dykes,~1861 * * *|||||
 z4 E2 z2 | D2 z B [_EB]3 [EA] | [_EG]2 [EA]2 [EB]2 [DF]2 | [B,F]2 [DB]2 [_EB]3 [EA] | %9
w: ||||
 [_EG]2 [EA]2 [DB]2 F2 | [Fd]2 [Ed]2 [Dd]3 D | z4 F4- | F2 z2 z4 | z8 |] %14
w: |||||
V:2
 x8 | x8 | x8 | DC [DF]2 [^CE]2 [D^F]2 | [DG]2 DC [^CG]2 [DF]2 | [^CE]2 [DF]2 DC D2 | F4 z4 | x8 | %8
 x8 | x8 | x8 | [DE]2 [DG]2 D4 | z2 E2 D4- | D4 z4 |] %14
V:3
 x8 | x8 | x8 | x8 | x8 | x8 | z2 D2 z4 | x8 | x8 | x8 | x8 | x8 | ^C4 z4 | x8 |] %14
V:4
 A,3 G, F,2 G,2 | A,2 B,2 A,2 A,2 | B,2 B,2 D2 A,2 | B,2 A,2 z2 A,2 | B,2 G,F, E,2 F,G, | %5
 A,2 A,2 G,E, F,2 | A,2 B,2[K:treble] C3 C | B,2 C2 B,2 B,2 | D2 B,2 C3 C | B,2 C2 B,2 D2 | %10
 D2[K:bass] B,2 B,3 B, | B,2 B,2 A,2 F,2 | G,4 F,4- | F,4 z4 |] %14
V:5
 D,3 D, D,2 D,2 | D,2 D,2 F,2 F,2 | G,2 G,2 F,2 F,2 | E,2 F,G, A,2 D,2 | G,2 A,,2 A,,2 A,,2 | %5
 A,,2 F,,G,, A,,2 D,2 | D,2 B,,2 F,,3 F, | F,2 F,2 B,,2 B,,2 | F,2 F,2 F,3 F, | F,2 F,2 B,,2 B,,2 | %10
 B,2 G,2 G,3 G, | G,2 G,,2 A,,4- | A,,4 D,4- | D,4 z4 |] %14

